X:445
T:
R:vals
S:Av Alfred Olsson, Petsarve i Ardre,
S:uppt. efter som han själv spelat den för samlaren.
C:Alfred Olsson
O:Gotland, Ardre
M:3/4
L:1/8
K:F
AB|c3 a a2|a3 f f2|f3 e e2|e4 d2|d3 b b2|b3 g g2|f3 egf|d4 c=B|c3 a a2|a3 f f2|f3 e e2|
e4 d2|d3 b b2|b3 gec|c3 deg|f4:|AB|c2 F2 d2|c2 F2d2|c2 defg|a2 c2 a2|a2 c'c'c'c'|(c'c) (de) (fg)|
a2 aaaa|(aA)(Bc)(de)|f2 ff ff|(fF) (GA) (Bc)|d2 dd dd|(dc) (cB) (BA)|Ac cf a2|=Bd dg g2|(ce) (eg) (gc')|f4:|

